assets/img/in-the-press/quotes/swiss.svg

<?xml version="1.0" encoding="UTF-8"?>
<svg width="300px" height="100px" viewBox="0 0 300 100" version="1.1" xmlns="http://www.w3.org/2000/svg" xmlns:xlink="http://www.w3.org/1999/xlink">
    <!-- Generator: Sketch 46.2 (44496) - http://www.bohemiancoding.com/sketch -->
    <title>swiss</title>
    <desc>Created with Sketch.</desc>
    <defs></defs>
    <g id="Page-1" stroke="none" stroke-width="1" fill="none" fill-rule="evenodd">
        <g id="swiss" fill-rule="nonzero">
            <g id="Swiss_International_Air_Lines_Logo_2011" transform="translate(52.000000, 28.000000)">
                <g id="_x23_e60005ff" fill="#E60005">
                    <path d="M36.1743311,0.0604571429 L60.5263576,0.0604571429 C56.7621192,15.2904 53.1419603,30.5637143 49.3660397,45.7910286 L0,45.7910286 L0,45.3152571 L0.00389403974,45.7805143 C12.0286887,30.5150857 24.0963179,15.2825143 36.1743311,0.0604571429 L36.1743311,0.0604571429 Z M33.4433113,8.87274286 C33.4485033,12.1479429 33.4355232,15.4270857 33.4510993,18.7036 C30.2281325,18.7114857 27.0038675,18.6957143 23.7796026,18.7114857 C23.7964768,21.5227429 23.7964768,24.3300571 23.7796026,27.14 C27.0038675,27.1570857 30.2281325,27.14 33.4510993,27.1492 C33.4355232,30.4244 33.4485033,33.7048571 33.4433113,36.9800571 C36.2431258,36.9958286 39.0390464,36.9879429 41.8375629,36.984 C41.8219868,33.7048571 41.8375629,30.4244 41.8297748,27.1452571 C45.0657219,27.1452571 48.3003709,27.1492 51.5376159,27.1452571 C51.5324238,24.334 51.5324238,21.5201143 51.5376159,18.7049143 C48.3016689,18.7049143 45.0670199,18.7049143 41.8297748,18.7088571 C41.8375629,15.4284 41.8219868,12.1492571 41.8375629,8.87011429 C39.0390464,8.86354286 36.2418278,8.85434286 33.4433113,8.87274286 Z" id="Shape"></path>
                    <path d="M68.4844768,10.2750857 C71.0402649,8.02765714 74.5942252,7.44017143 77.8717086,7.55057143 C80.9012715,7.68462857 84.1943311,8.47714286 86.2581722,10.8928 C87.5302252,12.3082857 87.9715497,14.2324 88.1156291,16.0894857 C85.7324768,16.1092 83.3545166,16.1013143 80.9713642,16.0934286 C80.8428609,14.7646857 80.165298,13.3846857 78.8179603,12.9798857 C77.0617483,12.4738857 74.6941722,12.5488 73.5778808,14.2402857 C72.7640265,15.6242286 73.6233113,17.3669714 74.9784371,17.9912571 C78.7829139,19.9548 83.4908079,20.2978286 86.6112318,23.5020571 C89.6174305,27.0453714 88.9943841,33.1568 85.3028344,35.9930286 C82.6808477,38.0958857 79.1671258,38.5729714 75.9220927,38.3902857 C72.8691656,38.1944571 69.6085563,37.3835429 67.4473642,35.0428 C65.9715232,33.4774857 65.367947,31.2826286 65.3990993,29.1548 C67.7744636,29.1495429 70.1537219,29.1548 72.5277881,29.1548 C72.7108079,30.1326286 72.9288742,31.1814286 73.6726358,31.8950857 C74.8486358,33.1252571 76.6905166,33.2921714 78.2740927,33.0542857 C79.874543,32.7901143 81.2725033,31.2997143 81.1323179,29.6042857 C81.0894834,28.4450857 80.162702,27.5868571 79.2125563,27.0808571 C75.951947,25.3236571 72.0046887,25.1357143 68.9984901,22.8396571 C65.0953642,20.0126286 64.8214834,13.4214857 68.4844768,10.2750857 Z" id="Shape"></path>
                    <path d="M148.708185,10.3026857 C151.15494,8.11834286 154.557033,7.5072 157.720291,7.53217143 C160.779709,7.63074286 164.119497,8.30102857 166.306649,10.6509714 C167.711099,12.0822286 168.256265,14.1167429 168.378278,16.0842286 C165.989934,16.1118286 163.606781,16.1144571 161.221033,16.0842286 C161.08604,14.8343429 160.524,13.5016571 159.266225,13.0600571 C157.681351,12.5080571 155.699285,12.5198857 154.348053,13.6357143 C153.270702,14.5320571 153.288874,16.3208 154.231232,17.3091429 C155.232,18.3513714 156.670199,18.7338286 157.990278,19.1583429 C160.70053,20.0021143 163.539285,20.7512571 165.85494,22.4900571 C169.890464,25.4748 169.863205,32.2433714 166.200212,35.5238286 C163.61457,37.9237143 159.920424,38.5558857 156.528715,38.4126286 C153.364159,38.2470286 149.92702,37.4689714 147.698331,35.0046857 C146.22249,33.4551429 145.64747,31.2629143 145.642278,29.1561143 C148.02543,29.1521714 150.413775,29.1561143 152.796927,29.1521714 C153.002013,30.1129143 153.169457,31.1564571 153.911921,31.8609143 C155.283921,33.2803429 157.534675,33.4196571 159.303868,32.8348 C161.235311,32.1632 162.198437,29.3466857 160.575921,27.8628571 C158.991046,26.4828571 156.876583,26.0162857 154.942543,25.3644 C152.263444,24.5758286 149.383152,23.5848571 147.661987,21.2112571 C145.380079,17.9781143 145.691603,12.9667429 148.708185,10.3026857 Z" id="Shape"></path>
                    <path d="M174.64898,10.1568 C177.55653,7.76874286 181.537536,7.2864 185.157695,7.65308571 C187.926358,7.91331429 190.852079,8.92268571 192.594013,11.2397714 C193.681748,12.6132 194.04649,14.3835429 194.176291,16.0881714 C191.803523,16.1118286 189.433351,16.0842286 187.063179,16.1039429 C186.824344,15.2286286 186.682861,14.2310857 185.937801,13.6278286 C184.607338,12.5080571 182.636954,12.5159429 181.067656,13.0521714 C179.795603,13.4753714 178.996026,14.9421143 179.424371,16.2550857 C179.847523,17.6403429 181.264954,18.3053714 182.51494,18.7469714 C185.602914,19.8049714 188.928424,20.4713143 191.608821,22.4611429 C195.688477,25.4261714 195.659921,32.2696571 191.968371,35.5474857 C189.460609,37.8619429 185.901457,38.5125143 182.610993,38.4231429 C179.495762,38.2930286 176.144291,37.6293143 173.814358,35.3726857 C172.13343,33.7916 171.396159,31.4298286 171.428609,29.1534857 C173.80657,29.1574286 176.18453,29.1574286 178.559894,29.1534857 C178.748106,30.6951429 179.546384,32.2538857 181.067656,32.798 C182.890066,33.4091429 185.326437,33.3736571 186.573828,31.6637714 C187.592768,30.3928571 187.308503,28.3373143 185.898861,27.4804 C182.468212,25.2408571 177.971894,25.3078857 174.769695,22.6109714 C171.061272,19.6406857 170.985987,13.1954286 174.64898,10.1568 Z" id="Shape"></path>
                    <path d="M89.0476026,8.234 C91.5047417,8.22874286 93.9605828,8.24188571 96.4177219,8.22611429 C98.0428344,14.7410286 99.670543,21.2585714 101.237245,27.7918857 C103.144026,21.2796 104.982013,14.7462857 106.883603,8.22874286 C109.306993,8.234 111.73298,8.234 114.158967,8.234 C116.078728,14.7252571 117.829748,21.2743429 119.848159,27.7393143 C121.335682,21.2191429 123.029589,14.7462857 124.585907,8.24188571 C127.04694,8.22874286 129.519656,8.22874286 131.980689,8.23794286 C129.304185,18.0136 126.66143,27.7984571 123.956371,37.5636 C121.383709,37.5596571 118.812344,37.5544 116.239682,37.5636 C114.310834,30.8949143 112.396265,24.2157143 110.540106,17.5207429 C108.569722,24.1828571 106.734331,30.8896571 104.795099,37.5596571 C102.228927,37.5636 99.661457,37.5425714 97.0939868,37.5714857 C94.3253245,27.8194857 91.7799205,17.9965143 89.0476026,8.234 Z" id="Shape"></path>
                    <path d="M134.863576,37.5636 C134.836318,27.7879429 134.86098,18.0096571 134.853192,8.234 C137.355762,8.234 139.862225,8.234 142.369987,8.234 C142.362199,18.0096571 142.385563,27.7866286 142.357007,37.5596571 C139.860927,37.5596571 137.360954,37.5544 134.863576,37.5636 Z" id="Shape"></path>
                </g>
                <g id="_x23_ffffffff" transform="translate(23.364238, 7.885714)" fill="#FFFFFF">
                    <path d="M10.0790728,0.987028571 C12.8788874,0.969942857 15.6748079,0.977828571 18.4733245,0.981771429 C18.4577483,4.26222857 18.4733245,7.54137143 18.4655364,10.8218286 C21.7014834,10.8178857 24.9361325,10.8178857 28.1733775,10.8178857 C28.1681854,13.6344 28.1681854,16.4482857 28.1733775,19.2582286 C24.9374305,19.2621714 21.7027815,19.2582286 18.4655364,19.2582286 C18.4733245,22.5373714 18.4577483,25.8178286 18.4733245,29.0969714 C15.6748079,29.1009143 12.8775894,29.1088 10.0790728,29.0917143 C10.0842649,25.8178286 10.0712848,22.5373714 10.0868609,19.2621714 C6.86389404,19.2529714 3.63962914,19.2700571 0.415364238,19.2529714 C0.432238411,16.4417143 0.432238411,13.6370286 0.415364238,10.8244571 C3.63962914,10.8086857 6.86389404,10.8244571 10.0868609,10.8165714 C10.0712848,7.54137143 10.0842649,4.26091429 10.0790728,0.987028571 Z" id="Shape"></path>
                </g>
            </g>
        </g>
    </g>
</svg>

<svg width="300" height="100" xmlns="http://www.w3.org/2000/svg"><g id="Page-1" fill="none" fill-rule="evenodd"><g id="swiss" fill-rule="nonzero"><g id="Swiss_International_Air_Lines_Logo_2011" transform="translate(52 28)"><g id="_x23_e60005ff" fill="#E60005"><path d="M36.174.06h24.352c-3.764 15.23-7.384 30.504-11.16 45.731H0v-.476l.004.466A16503.1 16503.1 0 0 1 36.174.06zm-2.73 8.813c.005 3.275-.008 6.554.007 9.83-3.223.008-6.447-.007-9.671.008.016 2.812.016 5.62 0 8.429 3.224.017 6.448 0 9.671.01-.015 3.274-.002 6.555-.008 9.83 2.8.016 5.596.008 8.395.004-.016-3.28 0-6.56-.008-9.839 3.236 0 6.47.004 9.708 0a2286.79 2286.79 0 0 1 0-8.44c-3.236 0-6.471 0-9.708.004.008-3.28-.008-6.56.008-9.839-2.799-.006-5.596-.016-8.395.003zm35.04 1.402c2.556-2.247 6.11-2.835 9.388-2.724 3.03.134 6.322.926 8.386 3.342 1.272 1.415 1.714 3.34 1.858 5.196-2.384.02-4.761.012-7.145.004-.128-1.328-.806-2.708-2.153-3.113-1.756-.506-4.124-.431-5.24 1.26-.814 1.384.045 3.127 1.4 3.751 3.805 1.964 8.513 2.307 11.633 5.511 3.006 3.543 2.383 9.655-1.308 12.491-2.622 2.103-6.136 2.58-9.38 2.397-3.054-.196-6.314-1.006-8.476-3.347-1.475-1.566-2.08-3.76-2.048-5.888 2.375-.005 4.755 0 7.129 0 .183.978.4 2.026 1.145 2.74 1.176 1.23 3.018 1.397 4.601 1.16 1.6-.265 2.999-1.755 2.858-3.45-.043-1.16-.97-2.018-1.92-2.524-3.26-1.757-7.207-1.945-10.214-4.241-3.903-2.827-4.177-9.419-.514-12.565zm80.224.028c2.447-2.185 5.849-2.796 9.012-2.77 3.06.098 6.4.768 8.587 3.118 1.404 1.431 1.95 3.466 2.071 5.433-2.388.028-4.771.03-7.157 0-.135-1.25-.697-2.582-1.955-3.024-1.585-.552-3.567-.54-4.918.576-1.077.896-1.06 2.685-.117 3.673 1.001 1.042 2.44 1.425 3.76 1.85 2.71.843 5.548 1.592 7.864 3.331 4.035 2.985 4.008 9.753.345 13.034-2.585 2.4-6.28 3.032-9.671 2.889-3.165-.166-6.602-.944-8.83-3.408-1.477-1.55-2.052-3.742-2.057-5.849 2.383-.004 4.772 0 7.155-.004.205.96.372 2.004 1.115 2.709 1.372 1.42 3.623 1.559 5.392.974 1.931-.672 2.894-3.488 1.272-4.972-1.585-1.38-3.7-1.847-5.633-2.499-2.68-.788-5.56-1.78-7.281-4.153-2.282-3.233-1.97-8.244 1.046-10.908zm25.941-.146c2.908-2.388 6.889-2.87 10.509-2.504 2.768.26 5.694 1.27 7.436 3.587 1.088 1.373 1.452 3.144 1.582 4.848-2.372.024-4.743-.004-7.113.016-.239-.875-.38-1.873-1.125-2.476-1.33-1.12-3.301-1.112-4.87-.576-1.272.423-2.072 1.89-1.644 3.203.424 1.385 1.841 2.05 3.09 2.492 3.089 1.058 6.414 1.724 9.095 3.714 4.08 2.965 4.05 9.809.36 13.086-2.508 2.315-6.068 2.966-9.358 2.876-3.115-.13-6.467-.794-8.797-3.05-1.68-1.581-2.418-3.943-2.385-6.22 2.378.004 4.756.004 7.13 0 .19 1.542.987 3.1 2.509 3.645 1.822.611 4.258.576 5.506-1.134 1.019-1.271.735-3.327-.675-4.184-3.43-2.24-7.927-2.172-11.13-4.869-3.708-2.97-3.783-9.416-.12-12.454zM89.048 8.234c2.457-.005 4.913.008 7.37-.008 1.625 6.515 3.253 13.033 4.82 19.566 1.906-6.512 3.744-13.046 5.646-19.563 2.423.005 4.849.005 7.275.005 1.92 6.491 3.67 13.04 5.69 19.505 1.487-6.52 3.18-12.993 4.737-19.497a828.56 828.56 0 0 1 7.395-.004c-2.677 9.776-5.32 19.56-8.025 29.326-2.572-.004-5.144-.01-7.716 0a1877.07 1877.07 0 0 1-5.7-20.043c-1.97 6.662-3.806 13.369-5.745 20.039-2.566.004-5.134-.017-7.701.011-2.769-9.752-5.314-19.574-8.046-29.337zm45.816 29.33c-.028-9.776-.003-19.554-.01-29.33h7.516c-.008 9.776.016 19.553-.013 29.326-2.496 0-4.996-.006-7.493.004z" id="Shape"/></g><g id="_x23_ffffffff" transform="translate(23.364 7.886)" fill="#FFF"><path d="M10.08.987c2.799-.017 5.595-.01 8.393-.005-.015 3.28 0 6.56-.007 9.84 3.235-.004 6.47-.004 9.707-.004-.005 2.816-.005 5.63 0 8.44-3.236.004-6.47 0-9.707 0 .007 3.28-.008 6.56.007 9.839-2.798.004-5.595.012-8.394-.005.005-3.274-.008-6.555.008-9.83-3.223-.009-6.447.008-9.672-.009.017-2.811.017-5.616 0-8.429 3.225-.015 6.449 0 9.672-.007-.016-3.276-.003-6.556-.008-9.83z" id="Shape"/></g></g></g></g></svg>
